public/svg/key-info-time.svg

<svg width="75" height="75" viewBox="0 0 75 75" fill="none" xmlns="http://www.w3.org/2000/svg">
<g clip-path="url(#clip0_173_60236)">
<path d="M44.0918 7.32422C31.0876 7.32422 20.5078 17.9039 20.5078 30.9082C20.5078 43.9125 31.0876 54.4922 44.0918 54.4922C57.0959 54.4922 67.6758 43.9125 67.6758 30.9082C67.6758 17.9039 57.0961 7.32422 44.0918 7.32422ZM62.3982 32.5195H64.39C64.0436 36.9248 62.289 40.9402 59.5774 44.1149L58.176 42.7134C57.5467 42.0841 56.5264 42.0841 55.8971 42.7134C55.2678 43.3427 55.2678 44.3629 55.8971 44.9921L57.2987 46.3937C54.1239 49.1052 50.1085 50.8598 45.7033 51.2062V49.2145C45.7033 48.3246 44.9818 47.6032 44.0919 47.6032C43.2021 47.6032 42.4806 48.3246 42.4806 49.2145V51.2062C38.0755 50.8598 34.06 49.1052 30.8852 46.3937L32.2868 44.9921C32.9161 44.3628 32.9161 43.3425 32.2868 42.7134C31.6573 42.0841 30.6371 42.0841 30.0079 42.7134L28.6063 44.1149C25.8948 40.9402 24.1402 36.9248 23.7938 32.5195H25.6034C26.4933 32.5195 27.2147 31.7981 27.2147 30.9082C27.2147 30.0183 26.4933 29.2969 25.6034 29.2969H23.7938C24.1402 24.8918 25.8948 20.8762 28.6063 17.7015L29.8792 18.9743C30.1938 19.2889 30.6062 19.4462 31.0185 19.4462C31.4309 19.4462 31.8432 19.2889 32.1579 18.9743C32.7872 18.345 32.7872 17.3247 32.1579 16.6954L30.8851 15.4226C34.06 12.7112 38.0754 10.9566 42.4805 10.6102V12.4198C42.4805 13.3097 43.2019 14.0312 44.0918 14.0312C44.9817 14.0312 45.7031 13.3097 45.7031 12.4198V10.6102C50.1082 10.9566 54.1238 12.7112 57.2985 15.4228L56.0257 16.6956C55.3964 17.3249 55.3964 18.3451 56.0257 18.9743C56.3404 19.2889 56.7527 19.4462 57.1651 19.4462C57.5774 19.4462 57.9899 19.2889 58.3044 18.9743L59.5771 17.7015C62.2887 20.8762 64.0433 24.8918 64.3897 29.2969H62.3979C61.5081 29.2969 60.7866 30.0183 60.7866 30.9082C60.7866 31.7981 61.5083 32.5195 62.3982 32.5195Z" fill="#21558A"/>
<path d="M19.8541 66.7469L29.4935 57.1073C30.1228 56.478 30.1228 55.4578 29.4935 54.8285C28.8641 54.1992 27.8441 54.1993 27.2146 54.8285L17.5752 64.468C16.9459 65.0973 16.9459 66.1176 17.5752 66.7469C17.8899 67.0615 18.3022 67.2189 18.7146 67.2189C19.127 67.2189 19.5395 67.0615 19.8541 66.7469Z" fill="black"/>
<path d="M12.9141 69.1292L9.8145 72.2288C9.18521 72.8581 9.18521 73.8784 9.8145 74.5077C10.1292 74.8223 10.5415 74.9797 10.9539 74.9797C11.3662 74.9797 11.7786 74.8223 12.0932 74.5077L15.1928 71.4081C15.8221 70.7788 15.8221 69.7585 15.1928 69.1292C14.5635 68.5001 13.5436 68.5001 12.9141 69.1292Z" fill="black"/>
<path d="M3.59209 69.1292L0.471973 72.2491C-0.157324 72.8784 -0.157324 73.8987 0.471973 74.528C0.786621 74.8426 1.19897 75 1.61133 75C2.02354 75 2.43618 74.8426 2.75068 74.528L5.8708 71.408C6.5001 70.7787 6.5001 69.7585 5.8708 69.1292C5.24136 68.5002 4.22124 68.5 3.59209 69.1292Z" fill="black"/>
<path d="M12.9141 59.8069L8.25298 64.4681C7.62368 65.0974 7.62368 66.1176 8.25298 66.7469C8.56763 67.0616 8.97998 67.2189 9.39233 67.2189C9.80454 67.2189 10.2172 67.0616 10.5317 66.7469L15.1928 62.0858C15.8221 61.4565 15.8221 60.4362 15.1928 59.8069C14.5637 59.1778 13.5434 59.1778 12.9141 59.8069Z" fill="black"/>
<path d="M17.5753 57.4247C17.8899 57.7393 18.3023 57.8967 18.7146 57.8967C19.1268 57.8967 19.5395 57.7393 19.854 57.4247L24.308 52.9707C24.9373 52.3414 24.9373 51.3211 24.308 50.6918C23.6787 50.0627 22.6584 50.0627 22.0291 50.6918L17.5751 55.1458C16.946 55.7751 16.946 56.7954 17.5753 57.4247Z" fill="black"/>
<path d="M33.5373 57.8284L26.8475 64.5182C26.2182 65.1475 26.2182 66.1678 26.8475 66.7971C27.1621 67.1117 27.5745 67.269 27.9868 67.269C28.3992 67.269 28.8115 67.1117 29.1262 66.7971L35.816 60.1073C36.4453 59.478 36.4453 58.4577 35.816 57.8284C35.1867 57.1991 34.1667 57.1991 33.5373 57.8284Z" fill="black"/>
<path d="M21.7061 69.6598L19.1165 72.2492C18.4872 72.8785 18.4872 73.8987 19.1165 74.5279C19.4312 74.8425 19.8435 74.9999 20.2559 74.9999C20.6681 74.9999 21.0807 74.8425 21.3952 74.5279L23.9848 71.9385C24.6141 71.3092 24.6141 70.2889 23.9848 69.6598C23.3555 69.0305 22.3352 69.0306 21.7061 69.6598Z" fill="black"/>
<path d="M8.253 57.4247C8.56765 57.7393 8.98 57.8967 9.39235 57.8967C9.80471 57.8967 10.2171 57.7393 10.5317 57.4247L20.1713 47.7851C20.8006 47.1558 20.8006 46.1356 20.1713 45.5063C19.5418 44.877 18.5218 44.877 17.8924 45.5063L8.25285 55.1458C7.6237 55.7751 7.6237 56.7954 8.253 57.4247Z" fill="black"/>
<path d="M3.59185 59.8069L0.492236 62.9065C-0.137061 63.5358 -0.137061 64.5561 0.492236 65.1854C0.806885 65.5 1.21924 65.6574 1.63159 65.6574C2.04395 65.6574 2.4563 65.5 2.77095 65.1854L5.87056 62.0858C6.49985 61.4565 6.49985 60.4362 5.87056 59.8069C5.24126 59.1776 4.22129 59.1776 3.59185 59.8069Z" fill="black"/>
<path d="M9.34243 48.6243C9.75479 48.6243 10.1671 48.4669 10.4818 48.1523L17.1716 41.4625C17.8009 40.8332 17.8009 39.8129 17.1716 39.1836C16.5421 38.5543 15.5222 38.5543 14.8927 39.1836L8.20293 45.8734C7.57363 46.5027 7.57363 47.523 8.20293 48.1523C8.51772 48.4669 8.92993 48.6243 9.34243 48.6243Z" fill="black"/>
<path d="M1.61133 56.3553C2.02368 56.3553 2.43604 56.198 2.75068 55.8833L5.34009 53.2939C5.96939 52.6646 5.96939 51.6444 5.34009 51.0151C4.71064 50.3858 3.69067 50.3858 3.06123 51.0151L0.471973 53.6046C-0.157324 54.2339 -0.157324 55.2542 0.471973 55.8835C0.786621 56.198 1.19897 56.3553 1.61133 56.3553Z" fill="black"/>
<path d="M44.0919 21.5479C43.202 21.5479 42.4806 22.2693 42.4806 23.1592V29.2969H39.0999C38.21 29.2969 37.4885 30.0183 37.4885 30.9082C37.4885 31.7981 38.21 32.5195 39.0999 32.5195H44.0919C44.9818 32.5195 45.7032 31.7981 45.7032 30.9082V23.1592C45.7032 22.2693 44.9818 21.5479 44.0919 21.5479Z" fill="#21558A"/>
<path d="M44.0918 0C27.0491 0 13.1836 13.8653 13.1836 30.9082C13.1836 47.9511 27.0489 61.8164 44.0918 61.8164C61.1347 61.8164 75 47.9511 75 30.9082C75 13.8653 61.1347 0 44.0918 0ZM44.0918 58.5938C28.8259 58.5938 16.4062 46.1741 16.4062 30.9082C16.4062 15.6423 28.8259 3.22266 44.0918 3.22266C59.3577 3.22266 71.7773 15.6423 71.7773 30.9082C71.7773 46.1741 59.3577 58.5938 44.0918 58.5938Z" fill="#21558A"/>
</g>
<defs>
<clipPath id="clip0_173_60236">
<rect width="75" height="75" fill="white"/>
</clipPath>
</defs>
</svg>

<svg xmlns="http://www.w3.org/2000/svg" width="75" height="75" fill="none"><g clip-path="url(#a)"><path fill="#21558A" d="M44.092 7.324c-13.004 0-23.584 10.58-23.584 23.584 0 13.005 10.58 23.584 23.584 23.584s23.584-10.58 23.584-23.584S57.096 7.324 44.092 7.324M62.398 32.52h1.992a20.27 20.27 0 0 1-4.813 11.595l-1.401-1.402a1.611 1.611 0 0 0-2.279 2.28l1.402 1.4a20.27 20.27 0 0 1-11.596 4.813v-1.992a1.611 1.611 0 0 0-3.222 0v1.992a20.27 20.27 0 0 1-11.596-4.812l1.402-1.402a1.611 1.611 0 1 0-2.28-2.279l-1.4 1.402a20.27 20.27 0 0 1-4.813-11.596h1.81a1.611 1.611 0 1 0 0-3.222h-1.81A20.27 20.27 0 0 1 28.606 17.7l1.273 1.273c.315.315.727.472 1.14.472s.824-.157 1.139-.472c.63-.629.63-1.65 0-2.279l-1.273-1.272A20.28 20.28 0 0 1 42.48 10.61v1.81a1.611 1.611 0 1 0 3.223 0v-1.81a20.27 20.27 0 0 1 11.595 4.813l-1.272 1.273a1.611 1.611 0 1 0 2.278 2.278l1.273-1.273a20.27 20.27 0 0 1 4.813 11.596h-1.992a1.611 1.611 0 1 0 0 3.223"/><path fill="#000" d="m19.854 66.747 9.64-9.64a1.611 1.611 0 1 0-2.28-2.279l-9.639 9.64a1.611 1.611 0 0 0 2.28 2.279M12.914 69.13l-3.1 3.099a1.611 1.611 0 0 0 2.28 2.279l3.099-3.1a1.611 1.611 0 0 0-2.279-2.279M3.592 69.13l-3.12 3.12a1.611 1.611 0 0 0 2.279 2.278l3.12-3.12a1.611 1.611 0 1 0-2.279-2.279M12.914 59.807l-4.661 4.661a1.611 1.611 0 1 0 2.279 2.279l4.66-4.661a1.611 1.611 0 0 0-2.278-2.28M17.575 57.425c.315.314.727.472 1.14.472s.825-.158 1.139-.472l4.454-4.454a1.611 1.611 0 0 0-2.279-2.28l-4.454 4.455c-.629.63-.629 1.65 0 2.279M33.537 57.828l-6.69 6.69a1.611 1.611 0 0 0 2.28 2.28l6.689-6.69a1.611 1.611 0 0 0-2.279-2.28M21.706 69.66l-2.59 2.59a1.611 1.611 0 1 0 2.28 2.278l2.589-2.59a1.611 1.611 0 1 0-2.279-2.278M8.253 57.425c.315.314.727.472 1.14.472s.824-.158 1.139-.472l9.64-9.64a1.611 1.611 0 1 0-2.28-2.279l-9.64 9.64c-.628.63-.628 1.65.001 2.279M3.592 59.807l-3.1 3.1a1.611 1.611 0 0 0 2.279 2.278l3.1-3.1a1.611 1.611 0 0 0-2.28-2.278M9.342 48.624c.413 0 .825-.157 1.14-.472l6.69-6.69a1.611 1.611 0 0 0-2.28-2.278l-6.69 6.69a1.611 1.611 0 0 0 1.14 2.75M1.611 56.355c.413 0 .825-.157 1.14-.472l2.59-2.59a1.611 1.611 0 1 0-2.28-2.278l-2.589 2.59a1.611 1.611 0 0 0 1.14 2.75"/><path fill="#21558A" d="M44.092 21.548c-.89 0-1.611.721-1.611 1.611v6.138H39.1a1.611 1.611 0 1 0 0 3.223h4.992c.89 0 1.611-.722 1.611-1.612V23.16c0-.89-.721-1.611-1.611-1.611"/><path fill="#21558A" d="M44.092 0C27.049 0 13.184 13.865 13.184 30.908s13.865 30.908 30.908 30.908S75 47.951 75 30.908 61.135 0 44.092 0m0 58.594c-15.266 0-27.686-12.42-27.686-27.686S28.826 3.223 44.092 3.223s27.685 12.42 27.685 27.685c0 15.266-12.42 27.686-27.685 27.686"/></g><defs><clipPath id="a"><path fill="#fff" d="M0 0h75v75H0z"/></clipPath></defs></svg>
